X:1
T:Es Woll’ Uns Gott, 87.87.87.877
T:Es Woll’ Uns Gott, 87.87.87.877
T:Deutsch Kirchenamt (Strassbur
T:Public Domain Courtesy of the Cyber Hymnal™
C:Deutsch Kirchenamt (Strassbur
Z:Public Domain
Z:Courtesy of the Cyber Hymnal™
%%score ( 1 2 ) ( 3 4 )
L:1/8
M:4/4
K:C
V:1 treble 
V:2 treble 
V:3 bass 
V:4 bass 
V:1
 [EB]4 | [Ec]2 [EB]2 [FA]2 [GB]2 | [Fd]3 [Ee] [Gd]2 [Ec]2 | [EB]4 [Dd]4 | [Ec]2 [DB]2 [Cc]2 [CA]2 | %5
 [CG]2 D2 [CF]2 [DG]2 | E8 | B,4 [EB]4 | [Ec]2 [EB]2 [FA]2 [GB]2 | [Fd]3 [Ee] [Gd]2 [Ec]2 | %10
 [EB]4 [Dd]4 | [Ec]2 [DB]2 [Cc]2 [CA]2 | [CG]2 D2 [CF]2 [DG]2 | E8 | [CG]4 [CF]2 [CE]2 | %15
 [B,D]2 [B,E]2 [A,C]2 [B,D]2 | [CE]4 [DB]4 | [Ec]2 [CA]2 [CG]2 [FA]2 | c4 [GB]4 | %19
 [Ge]4 [Gd]2 [DB]2 | [Fd]2 [CA]2 [EG]2 [DF]2 | [B,E]4 [EG]4 | [FA]2 [CG]2 [Ec]2 [Fd]2 | %23
 [EB]4 [^CA]4 | z2 [Ec]2 [EB]2 [CA]2 | [CG]2 D2 [CF]2 [DG]2 | [CE-]4 [B,E]8 |] %27
V:2
 x4 | x8 | x8 | x8 | x8 | x2 D2 x4 | C4 B,4- | x8 | x8 | x8 | x8 | x8 | x2 D2 x4 | C4 B,4 | x8 | %15
 x8 | x8 | x8 | E2 ^F2 x4 | x8 | x8 | x8 | x8 | x8 | x8 | x2 D2 x4 | x12 |] %27
V:3
 [E,^G,]4 | A,2 [G,B,]2 [F,C]2 [E,G,]2 | [D,A,]3 [C,C] [G,B,]2 A,2 | [E,^G,]4 [B,,=G,]4 | %4
 [C,G,]2 [G,,G,]2 [A,,E,]2 [F,,F,]2 | [C,E,]2 [B,,G,]2 [A,,A,]2 [G,,B,]2 | (A,2 ^F,2) [E,,^G,]4- | %7
 [E,,G,]4 [E,^G,]4 | A,2 [G,B,]2 [F,C]2 [E,G,]2 | [D,A,]3 [C,C] [G,B,]2 A,2 | [E,^G,]4 [B,,=G,]4 | %11
 [C,G,]2 [G,,G,]2 [A,,E,]2 [F,,F,]2 | [C,E,]2 [B,,G,]2 [A,,A,]2 [G,,B,]2 | (A,2 ^F,2) [E,,^G,]4 | %14
 [C,E,]4 [F,,A,]2 [C,G,]2 | [G,,G,]2 [E,,G,]2 [A,,E,]2 [G,,G,]2 | [C,G,]4 [G,,G,]4 | %17
 [C,G,]2 F,2 [E,G,]2 [D,F,]2 | [C,G,]2 [A,,C]2 [G,,D]4 | [C,C]4 [G,B,]2 G,2 | %20
 [D,A,]2 [F,A,]2 [C,C]2 [D,A,]2 | [E,^G,]4 [C,C]4 | [F,C]2 [E,G,]2 [A,,A,]2 [D,A,]2 | %23
 (A,2 ^G,2) [A,,A,]4 | z2 A,2 [E,G,]2 F,2 | [C,E,]2 [B,,G,]2 [A,,A,]2 [G,,B,]2 | %26
 (A,2 ^F,2) [E,,^G,]8 |] %27
V:4
 x4 | A,2 x6 | x6 A,2 | x8 | x8 | x8 | A,,4 x4 | x8 | A,2 x6 | x6 A,2 | x8 | x8 | x8 | A,,4 x4 | %14
 x8 | x8 | x8 | x2 F,2 x4 | x8 | x6 G,2 | x8 | x8 | x8 | E,4 x4 | x2 A,2 F,2 x2 | x8 | A,,4 x8 |] %27

